X:1
T:Title
L:1/8
M:4/4
I:linebreak $
K:D
V:1 treble nm="Voice"
V:1
"Em" Beed BcdB |"D" AD (3FED A,D (3FED |"Em" PE3 F GFGA | Beef gfed |"Em" Beed BcdB | %5
"D" AD (3FED A,D (3FED |"Em" PE3 F GFGA | Beed e3 z ::"Em" Pg3 a bgeg |"D" Pf3 g afdf | %10
"Em" gfga bgaf | gefd e2 de |"Em" gfga bgeg |"D" fefg afdf |"Em" g2 bg"D" f2 af |"Em" edef gfed :| %16
